icons/plexis/48/3Depict.svg

<svg viewBox="0 0 48 48" xmlns="http://www.w3.org/2000/svg" xmlns:xlink="http://www.w3.org/1999/xlink">
  <linearGradient id="a" gradientTransform="matrix(0 -1 1 0 -.0000015 47.999998)" gradientUnits="userSpaceOnUse" x1="1" x2="47">
    <stop offset="0" stop-color="#505050"/>
    <stop offset="1" stop-color="#5a5a5a"/>
  </linearGradient>
  <radialGradient id="b" cx="31" cy="23" gradientUnits="userSpaceOnUse" r="8">
    <stop offset="0" stop-color="#e36b5d"/>
    <stop offset="1" stop-color="#e05b4c"/>
  </radialGradient>
  <radialGradient id="c" cx="22" cy="29" gradientUnits="userSpaceOnUse" r="8">
    <stop offset="0" stop-color="#7070d0"/>
    <stop offset="1" stop-color="#6161cb"/>
  </radialGradient>
  <radialGradient id="d" cx="20" cy="19" gradientUnits="userSpaceOnUse" r="8">
    <stop offset="0" stop-color="#32e647"/>
    <stop offset="1" stop-color="#20e437"/>
  </radialGradient>
  <path d="m47 24c0 22.703-.297 23-23 23-22.703 0-23-.297-23-23 0-22.703.297-23 23-23 22.703 0 23 .297 23 23z" fill="url(#a)"/>
  <path d="m21 12a8 8 0 0 0-8 8 8 8 0 0 0  2.959 6.205 8 8 0 0 0-.959 3.795 8 8 0 0 0  8 8 8 8 0 0 0  7.762-6.105 8 8 0 0 0  1.238.105 8 8 0 0 0  8-8 8 8 0 0 0-8-8 8 8 0 0 0-3.643.879 8 8 0 0 0-7.357-4.879" opacity=".1"/>
  <circle cx="20" cy="19" fill="url(#d)" r="8"/>
  <circle cx="31" cy="23" fill="url(#b)" r="8"/>
  <path d="m23.07 22a8 8 0 0 0-.07 1 8 8 0 0 0  7.93 7.996 8 8 0 0 0  .07-.996 8 8 0 0 0-7.93-8z" opacity=".1"/>
  <circle cx="22" cy="29" fill="url(#c)" r="8"/>
</svg>

<svg xmlns="http://www.w3.org/2000/svg" viewBox="0 0 48 48">
 <defs>
  <linearGradient id="linearGradient3764" x1="1" x2="47" gradientUnits="userSpaceOnUse" gradientTransform="matrix(0,-1,1,0,-1.5e-6,47.999998)">
   <stop style="stop-color:#505050;stop-opacity:1"/>
   <stop offset="1" style="stop-color:#5a5a5a;stop-opacity:1"/>
  </linearGradient>
  <radialGradient id="radialGradient4187" cx="31" cy="23" r="8" gradientUnits="userSpaceOnUse">
   <stop style="stop-color:#e36b5d;stop-opacity:1"/>
   <stop offset="1" style="stop-color:#e05b4c;stop-opacity:1"/>
  </radialGradient>
  <radialGradient id="radialGradient4195" cx="22" cy="29" r="8" gradientUnits="userSpaceOnUse">
   <stop style="stop-color:#7070d0;stop-opacity:1"/>
   <stop offset="1" style="stop-color:#6161cb;stop-opacity:1"/>
  </radialGradient>
  <radialGradient id="radialGradient4203" cx="20" cy="19" r="8" gradientUnits="userSpaceOnUse">
   <stop style="stop-color:#32e647;stop-opacity:1"/>
   <stop offset="1" style="stop-color:#20e437;stop-opacity:1"/>
  </radialGradient>
 </defs>
 <g>
  
  
  
 </g>
 <g>
  <path d="m 47,24 C 47,46.703 46.703,47 24,47 1.297,47 1,46.703 1,24 1,1.297 1.297,1 24,1 46.703,1 47,1.297 47,24 z" style="fill:url(#linearGradient3764);fill-opacity:1"/>
 </g>
 <g>
  <g>
   <!-- color: #eeeeee -->
  </g>
 </g>
 <path d="m 21 12 a 8 8 0 0 0 -8 8 8 8 0 0 0 2.959 6.205 A 8 8 0 0 0 15 30 8 8 0 0 0 23 38 8 8 0 0 0 30.762 31.895 8 8 0 0 0 32 32 8 8 0 0 0 40 24 8 8 0 0 0 32 16 8 8 0 0 0 28.357 16.879 8 8 0 0 0 21 12" style="fill:#000;opacity:0.1;fill-opacity:1;stroke:none"/>
 <circle cx="20" cy="19" r="8" style="fill:url(#radialGradient4203);opacity:1;fill-opacity:1;stroke:none"/>
 <g>
  
 </g>
 <circle cx="31" cy="23" r="8" style="fill:url(#radialGradient4187);opacity:1;fill-opacity:1;stroke:none"/>
 <path d="M 23.07 22 A 8 8 0 0 0 23 23 A 8 8 0 0 0 30.93 30.996 A 8 8 0 0 0 31 30 A 8 8 0 0 0 23.07 22 z" style="fill:#000;opacity:0.1;fill-opacity:1;stroke:none"/>
 <circle cx="22" cy="29" r="8" style="fill:url(#radialGradient4195);opacity:1;fill-opacity:1;stroke:none"/>
</svg>
